src/assets/directions-icon.svg

<svg width="13" height="42" viewBox="0 0 13 42" fill="none" xmlns="http://www.w3.org/2000/svg">
<path d="M6.42293 12.3049C6.16064 12.3049 5.90257 12.2879 5.64972 12.2551L5.58535 12.7509C5.01969 12.6775 4.47715 12.5307 3.96766 12.3204L4.1584 11.8583C3.67734 11.6597 3.22805 11.3997 2.82043 11.088L2.51668 11.4851C2.07146 11.1446 1.67227 10.7473 1.33 10.3041L1.72576 9.99848C1.41195 9.59206 1.15021 9.14401 0.950304 8.66424L0.488768 8.85656C0.27667 8.34754 0.128566 7.80535 0.0544607 7.23997L0.55022 7.17499C0.51711 6.92238 0.5 6.66452 0.5 6.40244C0.5 6.14036 0.51711 5.8825 0.55022 5.62989L0.0544605 5.56491C0.128565 4.99953 0.276669 4.45734 0.488766 3.94832L0.950302 4.14063C1.15021 3.66087 1.41194 3.21281 1.72576 2.8064L1.33 2.50082C1.67226 2.05756 2.07146 1.66024 2.51668 1.31974L2.82043 1.7169C3.22805 1.40516 3.67734 1.14516 4.1584 0.946626L3.96766 0.484439C4.47715 0.274172 5.01969 0.127376 5.58535 0.0539445L5.64972 0.549784C5.90257 0.51696 6.16064 0.5 6.42293 0.5C6.68523 0.5 6.9433 0.51696 7.19615 0.549784L7.26052 0.0539445C7.82618 0.127376 8.36872 0.274172 8.87821 0.484439L8.68747 0.946626C9.16853 1.14516 9.61782 1.40516 10.0254 1.7169L10.3292 1.31974C10.7744 1.66024 11.1736 2.05756 11.5159 2.50082L11.1201 2.8064C11.4339 3.21281 11.6957 3.66087 11.8956 4.14064L12.3571 3.94832C12.5692 4.45734 12.7173 4.99953 12.7914 5.56491L12.2956 5.62989C12.3288 5.8825 12.3459 6.14036 12.3459 6.40244C12.3459 6.66452 12.3288 6.92238 12.2956 7.17499L12.7914 7.23997C12.7173 7.80535 12.5692 8.34754 12.3571 8.85656L11.8956 8.66424C11.6957 9.14401 11.4339 9.59206 11.1201 9.99848L11.5159 10.3041C11.1736 10.7473 10.7744 11.1446 10.3292 11.4851L10.0254 11.088C9.61782 11.3997 9.16853 11.6597 8.68747 11.8583L8.87821 12.3204C8.36872 12.5307 7.82618 12.6775 7.26052 12.7509L7.19615 12.2551C6.9433 12.2879 6.68523 12.3049 6.42293 12.3049Z" fill="white" stroke="#5F35E6" stroke-dasharray="2 2"/>
<path d="M6.57699 41.5C6.3147 41.5 6.05663 41.483 5.80378 41.4502L5.73941 41.9461C5.17375 41.8726 4.63121 41.7258 4.12171 41.5156L4.31245 41.0534C3.83139 40.8548 3.38211 40.5949 2.97448 40.2831L2.67074 40.6803C2.22552 40.3398 1.82632 39.9424 1.48406 39.4992L1.87981 39.1936C1.566 38.7872 1.30427 38.3391 1.10436 37.8594L0.642821 38.0517C0.430723 37.5427 0.282618 37.0005 0.208514 36.4351L0.704273 36.3701C0.671162 36.1175 0.654053 35.8597 0.654053 35.5976C0.654053 35.3355 0.671162 35.0776 0.704273 34.825L0.208514 34.76C0.282618 34.1947 0.430723 33.6525 0.642821 33.1435L1.10436 33.3358C1.30427 32.856 1.566 32.4079 1.87981 32.0015L1.48406 31.6959C1.82632 31.2527 2.22552 30.8554 2.67074 30.5149L2.97448 30.912C3.38211 30.6003 3.83139 30.3403 4.31245 30.1418L4.12171 29.6796C4.63121 29.4693 5.17375 29.3225 5.73941 29.2491L5.80378 29.7449C6.05663 29.7121 6.3147 29.6951 6.57699 29.6951C6.83928 29.6951 7.09735 29.7121 7.3502 29.7449L7.41457 29.2491C7.98023 29.3225 8.52276 29.4693 9.03226 29.6796L8.84151 30.1418C9.32257 30.3403 9.77185 30.6003 10.1795 30.912L10.4832 30.5149C10.9284 30.8554 11.3276 31.2527 11.6699 31.696L11.2741 32.0015C11.5879 32.408 11.8497 32.856 12.0496 33.3358L12.5111 33.1435C12.7232 33.6525 12.8713 34.1947 12.9454 34.76L12.4497 34.825C12.4828 35.0776 12.4999 35.3355 12.4999 35.5976C12.4999 35.8597 12.4828 36.1175 12.4497 36.3701L12.9454 36.4351C12.8713 37.0005 12.7232 37.5427 12.5111 38.0517L12.0496 37.8594C11.8497 38.3391 11.5879 38.7872 11.2741 39.1936L11.6699 39.4992C11.3276 39.9424 10.9284 40.3398 10.4832 40.6803L10.1795 40.2831C9.77185 40.5948 9.32257 40.8548 8.84151 41.0534L9.03226 41.5156C8.52276 41.7258 7.98023 41.8726 7.41457 41.9461L7.3502 41.4502C7.09735 41.483 6.83928 41.5 6.57699 41.5Z" fill="white" stroke="#5F35E6" stroke-dasharray="2 2"/>
<path d="M6.52563 13.5732V28.4781" stroke="#5F35E6" stroke-dasharray="2 2"/>
<path d="M5.981 3.988H7.066L8.949 9H7.906L7.486 7.803H5.568L5.148 9H4.105L5.981 3.988ZM7.178 6.935L6.737 5.675L6.555 5.073H6.499L6.317 5.675L5.869 6.935H7.178Z" fill="#5F35E6"/>
<path d="M4.574 32.988H6.534C6.814 32.988 7.07067 33.0463 7.304 33.163C7.542 33.2797 7.72867 33.4383 7.864 33.639C7.99933 33.8397 8.067 34.059 8.067 34.297C8.067 34.549 8.004 34.7683 7.878 34.955C7.75667 35.137 7.59567 35.277 7.395 35.375V35.431C7.65633 35.5243 7.864 35.6737 8.018 35.879C8.172 36.0797 8.249 36.3223 8.249 36.607C8.249 36.8823 8.17433 37.1273 8.025 37.342C7.88033 37.552 7.682 37.7153 7.43 37.832C7.18267 37.944 6.90733 38 6.604 38H4.574V32.988ZM6.464 35.032C6.66933 35.032 6.83267 34.976 6.954 34.864C7.08 34.7473 7.143 34.6027 7.143 34.43C7.143 34.262 7.08233 34.122 6.961 34.01C6.84433 33.8933 6.688 33.835 6.492 33.835H5.519V35.032H6.464ZM6.569 37.139C6.79767 37.139 6.975 37.0807 7.101 36.964C7.23167 36.8427 7.297 36.6863 7.297 36.495C7.297 36.3037 7.23167 36.1473 7.101 36.026C6.97033 35.9047 6.78367 35.844 6.541 35.844H5.519V37.139H6.569Z" fill="#5F35E6"/>
</svg>

<svg width="13" height="42" fill="none" xmlns="http://www.w3.org/2000/svg"><path d="M6.423 12.305c-.262 0-.52-.017-.773-.05l-.065.496a6.393 6.393 0 01-1.617-.43l.19-.463a5.925 5.925 0 01-1.338-.77l-.303.397a6.452 6.452 0 01-1.187-1.18l.396-.307A5.891 5.891 0 01.95 8.664l-.461.193A6.343 6.343 0 01.054 7.24l.496-.065a5.942 5.942 0 010-1.545l-.496-.065A6.343 6.343 0 01.49 3.948l.461.193c.2-.48.462-.928.776-1.335l-.396-.305A6.45 6.45 0 012.517 1.32l.303.397a5.921 5.921 0 011.338-.77l-.19-.463a6.395 6.395 0 011.617-.43L5.65.55a6.004 6.004 0 011.546 0l.065-.496c.565.073 1.108.22 1.617.43l-.19.463c.48.198.93.458 1.337.77l.304-.397c.445.34.845.738 1.187 1.18l-.396.306c.314.407.576.855.776 1.335l.461-.193c.212.51.36 1.052.434 1.617l-.495.065a5.927 5.927 0 010 1.545l.495.065a6.342 6.342 0 01-.434 1.617l-.461-.193c-.2.48-.462.928-.776 1.334l.396.306c-.342.443-.742.84-1.187 1.181l-.304-.397a5.924 5.924 0 01-1.338.77l.191.462c-.51.21-1.052.357-1.617.43l-.065-.495c-.253.033-.51.05-.773.05zM6.577 41.5c-.262 0-.52-.017-.773-.05l-.065.496a6.401 6.401 0 01-1.617-.43l.19-.463a5.922 5.922 0 01-1.338-.77l-.303.397a6.453 6.453 0 01-1.187-1.18l.396-.306a5.892 5.892 0 01-.776-1.335l-.461.193a6.342 6.342 0 01-.434-1.617l.495-.065a5.941 5.941 0 010-1.545L.21 34.76a6.343 6.343 0 01.434-1.616l.461.192c.2-.48.462-.928.776-1.334l-.396-.306c.342-.443.742-.84 1.187-1.181l.303.397a5.921 5.921 0 011.338-.77l-.19-.462a6.393 6.393 0 011.617-.43l.065.495a6.008 6.008 0 011.546 0l.065-.496c.565.074 1.108.22 1.617.43l-.19.463c.48.198.93.458 1.338.77l.303-.397c.445.34.845.738 1.187 1.181l-.396.305c.314.407.576.855.776 1.335l.461-.192c.212.509.36 1.05.434 1.616l-.495.065a5.945 5.945 0 010 1.545l.495.065a6.342 6.342 0 01-.434 1.617l-.461-.193c-.2.48-.462.928-.776 1.335l.396.305c-.342.443-.742.84-1.187 1.181l-.303-.397a5.926 5.926 0 01-1.338.77l.19.463c-.51.21-1.052.357-1.617.43l-.065-.496c-.253.033-.51.05-.773.05z" fill="#fff" stroke="#5F35E6" stroke-dasharray="2 2"/><path d="M6.526 13.573v14.905" stroke="#5F35E6" stroke-dasharray="2 2"/><path d="M5.981 3.988h1.085L8.949 9H7.906l-.42-1.197H5.568L5.148 9H4.105l1.876-5.012zm1.197 2.947l-.441-1.26-.182-.602h-.056l-.182.602-.448 1.26h1.309zM4.574 32.988h1.96c.28 0 .537.058.77.175.238.117.425.275.56.476.135.2.203.42.203.658 0 .252-.063.471-.189.658a1.205 1.205 0 01-.483.42v.056c.261.093.469.243.623.448.154.2.231.443.231.728 0 .275-.075.52-.224.735-.145.21-.343.373-.595.49a1.98 1.98 0 01-.826.168h-2.03v-5.012zm1.89 2.044c.205 0 .369-.056.49-.168a.568.568 0 00.189-.434.548.548 0 00-.182-.42.634.634 0 00-.469-.175h-.973v1.197h.945zm.105 2.107c.229 0 .406-.058.532-.175a.611.611 0 00.196-.469.611.611 0 00-.196-.469c-.13-.121-.317-.182-.56-.182H5.519v1.295h1.05z" fill="#5F35E6"/></svg>
